!!!SOCIAL_FUNCTION: stomp dance songs
!!!PDT:	1943
!!!LING_GROUP: Muskogean
!!!LANG: Non-Tone
Specific Region: Oklahoma, California, Mississippi, Louisiana, Texas, Alabama
!!!REG: Southeast
!!!COM: Anon.
!!!OTL: Stomp Dance Song (i) [First rendition]
!!!ODT: <1933//
!!!MPN: Gus Willis
!!!MLC: Philadelphia, Mississippi, United States of America
!! Song was recorded in January 1933.
!!!AGN: monody
!!!AMT: irregular
!!!RWG: Transcribed pitches, durations, and meters are only approximate.
**kern
*ICvox
*Imale
*clefF4
*k[b-e-]
*M2/4
*MM66
=1-
8r
16B-
16G
8B-
8B-
=2
16B-
8G
16B-
8G
8G
=3
8B-
8G
8B-
8B-
=4
16B-
8G
16B-
8G
8G
=5
8.B-
16c
8B-
8G
*M3/4
=6
8B-
8B-
8G
8r
8G
8G
=7
!! augmentation dot added:
8.B-
16c
8B-
8G
8B-
8B-
*M2/4
=8
8.G
16B-
8G
8G
=9
8.d
16c
8c
16B-
16G
*M3/4
=10
8B-
8B-
8G
8r
8G
8G
*M2/4
=11
16d
8c
16c
16c
16B-
8G
*M3/4
=12
8B-
8B-
8G
8r
8G
8G
=13
8c
16B-
16B-
8B-
8G
8B-
8B-
*M2/4
=14
8.G
16B-
8G
8G
*M3/4
=15
8c
16B-
16B-
8B-
8G
8B-
8B-
=16
8G
8r
8G
8G
8G
8r
==
*-
!!!CNT: Choctaw
!!!TXO: Choctaw
!!!OCY: United States
!!!OCL: Frances Densmore
!!!YOR: Frances Densmore, "Choctaw Music"
!!!YOR: Bulletin 136, page 169, No. 52 [First rendition]
!!!PPR: Smithsonian Institution, Bureau of American Ethnology
!!!PPR: Government Printing Office
!!!PDT: 1943
!!!PPP: Washington, DC, United States of America
!!!YEC: Electronic Copyright 2000 David Huron
!!!YER: August 2000
!!!YEN: United States of America
!!!ENC: David Huron
!!!RDT: August 29, 2000
!!!EEV: Release 1.0
!!!AIN: vox
